X: 19
T: Polska ur E L Lindblads notbok
B: SMUS - katalog M177 bild 100 (no 19)
B: E L Lindblads notbok
S: efter [[Personer/E L Lindblad]]
Z: Nils L
R: Polska
O: Uppland
M: 3/4
L: 1/16
K: Dm
A4 | (d2e2) (f2e2) (g2f2) | (e2d2) (f2e2) (d2^c2) | (e2^c2) A8 :: e4 | (f2g2) a4 (f2a2) | 
g4 e8 | a4 f4 e2d2 | ^c4 A8 | (d2e2) (f2e2) (g2f2) | e2^c2 g2f2 e2d2 | ^c4 d4 :|

